storage/app/icons/phosphoricons/fill/slideshow-fill.svg

<svg xmlns="http://www.w3.org/2000/svg" fill="currentColor" viewBox="0 0 256 256"><path d="M208 64v128a16 16 0 0 1-16 16H64a16 16 0 0 1-16-16V64a16 16 0 0 1 16-16h128a16 16 0 0 1 16 16m24-16a8 8 0 0 0-8 8v144a8 8 0 0 0 16 0V56a8 8 0 0 0-8-8M24 48a8 8 0 0 0-8 8v144a8 8 0 0 0 16 0V56a8 8 0 0 0-8-8"/></svg>

<svg xmlns="http://www.w3.org/2000/svg" viewBox="0 0 256 256" fill="currentColor"><path d="M208,64V192a16,16,0,0,1-16,16H64a16,16,0,0,1-16-16V64A16,16,0,0,1,64,48H192A16,16,0,0,1,208,64Zm24-16a8,8,0,0,0-8,8V200a8,8,0,0,0,16,0V56A8,8,0,0,0,232,48ZM24,48a8,8,0,0,0-8,8V200a8,8,0,0,0,16,0V56A8,8,0,0,0,24,48Z"/></svg>
